X:5505
T:Reel,A. JMT017
T:My Love Is But A Lassie Yet. JMT017
O:england
M:2/4
L:1/8
Q:220
S:J.Moore,Tyneside,1841.(11b)
R:Reel
A:Northumbria
H:184
K:D
B/c/| dDFD| dDD B/c/| dDFD| eEE B/c/| dDFD| dgfe| (d/c/B/A/) Bc| dDD:|
f/g/| afge| fd d/e/f/g/| afge| bee f/g/| afge| fdec| (d/c/B/A/) Bc| dDD
:|]


